X:1
T:Title
L:1/8
Q:1/4=120
M:4/4
K:C
V:1 treble nm="Voice"
V:1
 E2 E2 F2 G2 | G2 F2 E2 D2 | C2 C2 D2 E2 | E2 z2 D2 z2 | E2 E2 F2 G2 | G2 F2 E2 D2 | C2 C2 D2 E2 | %7
 D2 z2 C2 z2 |] %8

